X:132
T: STETS IN TRAUERN MUSS ICH LEBEN
N: E0722B
O: Europa, Mitteleuropa, Deutschland, Ober - Hessen, Obernburg
R: Liebes - Lied, Leid, Klage, Abschied
M: 3/4
L: 1/8
K: G
DD | G2D2EF | GDB,2
GB | A2BAEA | D2z2
DD | cBAAGE | EDB,2
DF | G2B2AF | G2z2

@@@ Tune index: 4445
